svg/color/hqt.svg

<?xml version="1.0" encoding="UTF-8" ?>
<!DOCTYPE svg PUBLIC "-//W3C//DTD SVG 1.1//EN" "http://www.w3.org/Graphics/SVG/1.1/DTD/svg11.dtd">
<svg width="250pt" height="250pt" viewBox="0 0 250 250" version="1.1" xmlns="http://www.w3.org/2000/svg">
<g id="#ffffffff">
<path fill="#ffffff" opacity="1.00" d=" M 0.00 0.00 L 250.00 0.00 L 250.00 250.00 L 0.00 250.00 L 0.00 0.00 M 136.84 6.77 C 123.73 12.95 112.75 23.54 106.30 36.54 C 97.04 54.91 97.00 77.56 106.01 96.02 C 112.66 109.98 124.66 121.10 138.80 127.23 C 153.98 133.57 171.29 134.50 187.12 130.17 C 184.89 121.67 181.32 113.56 178.34 105.30 C 163.11 109.80 145.33 103.91 136.41 90.63 C 123.92 73.32 127.19 46.30 144.58 33.45 C 154.27 26.00 167.55 24.58 179.12 27.78 C 190.28 31.32 199.53 40.23 203.49 51.24 C 206.93 60.19 207.26 70.25 204.28 79.38 C 213.19 82.98 222.44 85.77 231.26 89.58 C 238.10 73.29 237.03 54.15 229.78 38.17 C 221.89 20.64 205.67 7.32 187.11 2.48 C 178.63 0.12 169.75 0.69 161.05 0.67 C 152.65 0.90 144.41 3.18 136.84 6.77 M 10.27 2.73 C 10.01 44.71 10.27 86.69 10.14 128.67 C 19.97 128.67 29.79 128.67 39.62 128.67 C 39.58 112.66 39.61 96.66 39.60 80.65 C 57.21 80.58 74.82 80.75 92.43 80.57 C 92.28 79.94 91.99 78.69 91.84 78.06 C 91.86 73.41 91.43 68.72 92.13 64.11 C 92.35 59.82 92.30 55.52 92.47 51.22 C 74.86 51.20 57.25 51.22 39.64 51.21 C 39.50 35.05 39.75 18.89 39.51 2.73 C 29.76 2.78 20.02 2.78 10.27 2.73 M 93.57 3.56 C 93.98 17.41 93.40 31.29 93.86 45.13 C 98.78 28.92 109.24 14.50 123.28 4.99 C 123.33 4.43 123.43 3.31 123.48 2.76 C 114.64 2.75 105.81 2.78 96.98 2.74 C 95.74 2.62 94.60 2.89 93.57 3.56 M 175.03 76.12 C 182.55 97.45 190.85 118.51 198.15 139.91 C 199.14 139.81 199.96 139.38 200.61 138.62 C 212.03 127.06 223.58 115.63 235.06 104.11 C 236.45 102.59 238.40 101.40 239.03 99.33 C 217.60 91.86 196.47 83.56 175.03 76.12 M 93.80 87.99 C 93.55 101.53 93.81 115.07 93.67 128.61 C 103.70 128.69 113.73 128.74 123.75 128.58 C 109.39 119.06 98.85 104.42 93.80 87.99 Z" />
</g>
<g id="#000000ff">
<path fill="#000000" opacity="1.00" d=" M 136.84 6.77 C 144.41 3.18 152.65 0.90 161.05 0.67 C 169.75 0.69 178.63 0.12 187.11 2.48 C 205.67 7.32 221.89 20.64 229.78 38.17 C 237.03 54.15 238.10 73.29 231.26 89.58 C 222.44 85.77 213.19 82.98 204.28 79.38 C 207.26 70.25 206.93 60.19 203.49 51.24 C 199.53 40.23 190.28 31.32 179.12 27.78 C 167.55 24.58 154.27 26.00 144.58 33.45 C 127.19 46.30 123.92 73.32 136.41 90.63 C 145.33 103.91 163.11 109.80 178.34 105.30 C 181.32 113.56 184.89 121.67 187.12 130.17 C 171.29 134.50 153.98 133.57 138.80 127.23 C 124.66 121.10 112.66 109.98 106.01 96.02 C 97.00 77.56 97.04 54.91 106.30 36.54 C 112.75 23.54 123.73 12.95 136.84 6.77 Z" />
<path fill="#000000" opacity="1.00" d=" M 10.27 2.73 C 20.02 2.78 29.76 2.78 39.51 2.73 C 39.75 18.89 39.50 35.05 39.64 51.21 C 57.25 51.22 74.86 51.20 92.47 51.22 C 92.30 55.52 92.35 59.82 92.13 64.11 C 91.43 68.72 91.86 73.41 91.84 78.06 C 91.99 78.69 92.28 79.94 92.43 80.57 C 74.82 80.75 57.21 80.58 39.60 80.65 C 39.61 96.66 39.58 112.66 39.62 128.67 C 29.79 128.67 19.97 128.67 10.14 128.67 C 10.27 86.69 10.01 44.71 10.27 2.73 Z" />
<path fill="#000000" opacity="1.00" d=" M 93.57 3.56 C 94.60 2.89 95.74 2.62 96.98 2.74 C 105.81 2.78 114.64 2.75 123.48 2.76 C 123.43 3.31 123.33 4.43 123.28 4.99 C 109.24 14.50 98.78 28.92 93.86 45.13 C 93.40 31.29 93.98 17.41 93.57 3.56 Z" />
<path fill="#000000" opacity="1.00" d=" M 93.80 87.99 C 98.85 104.42 109.39 119.06 123.75 128.58 C 113.73 128.74 103.70 128.69 93.67 128.61 C 93.81 115.07 93.55 101.53 93.80 87.99 Z" />
</g>
<g id="#ff2700ff">
<path fill="#ff2700" opacity="1.00" d=" M 175.03 76.12 C 196.47 83.56 217.60 91.86 239.03 99.33 C 238.40 101.40 236.45 102.59 235.06 104.11 C 223.58 115.63 212.03 127.06 200.61 138.62 C 199.96 139.38 199.14 139.81 198.15 139.91 C 190.85 118.51 182.55 97.45 175.03 76.12 Z" />
</g>
</svg>

<?xml version="1.0" encoding="utf-8"?>
<!-- Generator: Adobe Illustrator 26.0.3, SVG Export Plug-In . SVG Version: 6.00 Build 0)  -->
<svg version="1.1" id="Layer_1" xmlns="http://www.w3.org/2000/svg" xmlns:xlink="http://www.w3.org/1999/xlink" x="0px" y="0px"
	 viewBox="0 0 250 250" style="enable-background:new 0 0 250 250;" xml:space="preserve">
<style type="text/css">
	.st0{fill:#FF2700;}
</style>
<g id="_x23_000000ff">
	<path d="M136.8,6.8c7.6-3.6,15.8-5.9,24.2-6.1c8.7,0,17.6-0.6,26.1,1.8c18.6,4.8,34.8,18.2,42.7,35.7c7.2,16,8.3,35.1,1.5,51.4
		c-8.8-3.8-18.1-6.6-27-10.2c3-9.1,2.6-19.2-0.8-28.1c-4-11-13.2-19.9-24.4-23.5c-11.6-3.2-24.8-1.8-34.5,5.7
		c-17.4,12.8-20.7,39.9-8.2,57.2c8.9,13.3,26.7,19.2,41.9,14.7c3,8.3,6.6,16.4,8.8,24.9c-15.8,4.3-33.1,3.4-48.3-2.9
		C124.7,121.1,112.7,110,106,96c-9-18.5-9-41.1,0.3-59.5C112.8,23.5,123.7,12.9,136.8,6.8z"/>
	<path d="M10.3,2.7c9.8,0,19.5,0,29.2,0c0.2,16.2,0,32.3,0.1,48.5c17.6,0,35.2,0,52.8,0c-0.2,4.3-0.1,8.6-0.3,12.9
		c-0.7,4.6-0.3,9.3-0.3,13.9c0.2,0.6,0.4,1.9,0.6,2.5c-17.6,0.2-35.2,0-52.8,0.1c0,16,0,32,0,48c-9.8,0-19.6,0-29.5,0
		C10.3,86.7,10,44.7,10.3,2.7z"/>
	<path d="M93.6,3.6c1-0.7,2.2-0.9,3.4-0.8c8.8,0,17.7,0,26.5,0c-0.1,0.5-0.2,1.7-0.2,2.2c-14,9.5-24.5,23.9-29.4,40.1
		C93.4,31.3,94,17.4,93.6,3.6z"/>
	<path d="M93.8,88c5,16.4,15.6,31.1,29.9,40.6c-10,0.2-20.1,0.1-30.1,0C93.8,115.1,93.6,101.5,93.8,88z"/>
</g>
<g id="_x23_ff2700ff">
	<path class="st0" d="M175,76.1c21.4,7.4,42.6,15.7,64,23.2c-0.6,2.1-2.6,3.3-4,4.8c-11.5,11.5-23,22.9-34.4,34.5
		c-0.6,0.8-1.5,1.2-2.5,1.3C190.9,118.5,182.6,97.4,175,76.1z"/>
</g>
</svg>
